Newaita-dark/apps/24/deadbeef.svg

<svg height="24pt" viewBox="0 0 24 24" width="24pt" xmlns="http://www.w3.org/2000/svg" xmlns:xlink="http://www.w3.org/1999/xlink"><linearGradient id="a"><stop offset="0" stop-opacity=".313725"/><stop offset=".222222" stop-opacity=".27451"/><stop offset="1" stop-opacity="0"/></linearGradient><radialGradient id="b" cx="450.90894" cy="189.57936" gradientTransform="matrix(.00000013 -.0585994 -.105479 -.00000008 24.957966 47.696501)" gradientUnits="userSpaceOnUse" r="21.166656" xlink:href="#a"/><radialGradient id="c" cx="450.90894" cy="189.57936" gradientTransform="matrix(-.00000013 .0585994 .105479 .00000008 -14.538999 -5.645609)" gradientUnits="userSpaceOnUse" r="21.166656" xlink:href="#a"/><radialGradient id="d" cx="450.90894" cy="189.57936" gradientTransform="matrix(-.00000013 -.0585994 .105479 -.00000008 -14.538999 47.696501)" gradientUnits="userSpaceOnUse" r="21.166656" xlink:href="#a"/><radialGradient id="e" cx="450.90894" cy="189.57936" gradientTransform="matrix(.00000013 .0585994 -.105479 .00000008 24.957964 -5.645609)" gradientUnits="userSpaceOnUse" r="21.166656" xlink:href="#a"/><linearGradient id="f" gradientUnits="userSpaceOnUse" x1="11.907393" x2="11.907393" y1="21.02545025" y2="2.17207784373"><stop offset="0" stop-color="#424242"/><stop offset="1" stop-color="#616161"/></linearGradient><linearGradient id="g" gradientUnits="userSpaceOnUse" x1="9.922802" x2="9.922802" y1="6.63733735335" y2="16.5601385937"><stop offset="0" stop-color="#9ccc65"/><stop offset="1" stop-color="#aed581"/></linearGradient><path d="m5.210938 21.027344h1.984374v-.996094h-1.984374zm0 0" fill="url(#b)"/><path d="m5.210938 21.027344h-1.984376v.992187h1.984376zm0 0" fill="url(#c)"/><path d="m5.210938 21.027344h-1.984376v-.996094h1.984376zm0 0" fill="url(#d)"/><path d="m5.210938 21.027344h1.984374v.992187h-1.984374zm0 0" fill="url(#e)"/><path d="m5.460938 2.171875c-.0625 0-.128907.003906-.195313.011719-.007813 0-.019531.003906-.03125.003906-.003906 0-.007813.003906-.011719.003906-.007812 0-.011718 0-.015625 0-.644531.109375-1.148437.632813-1.226562 1.285156 0 .011719-.003907.023438-.003907.03125-.007812.0625-.007812.125-.007812.1875v15.839844.011719c-.007812.265625.058594.535156.199219.78125.414062.714844 1.320312.957031 2.035156.546875l13.75-7.9375c.484375-.28125.753906-.792969.746094-1.3125.007812-.523438-.261719-1.035156-.746094-1.3125l-13.691406-7.90625c-.164063-.105469-.347657-.179688-.546875-.210938-.011719-.003906-.023438-.003906-.035156-.007812-.070313-.011719-.144532-.015625-.21875-.015625zm0 0" fill="url(#f)"/><path d="m5.460938 2.171875c-.0625 0-.128907.003906-.195313.011719-.007813 0-.019531.003906-.03125.003906-.003906 0-.007813.003906-.011719.003906-.007812 0-.011718 0-.015625 0-.644531.109375-1.148437.632813-1.226562 1.285156 0 .011719-.003907.023438-.003907.03125-.007812.0625-.007812.125-.007812.1875v.1875c0-.042968.003906-.082031.007812-.125 0-.011718.003907-.019531.003907-.03125.078125-.65625.582031-1.175781 1.226562-1.285156.003907 0 .007813 0 .015625-.003906h.011719c.011719-.003906.023437-.003906.03125-.003906.066406-.007813.132813-.011719.195313-.011719.074218 0 .148437.003906.21875.015625.011718 0 .023437.003906.035156.003906.199218.035156.382812.109375.546875.214844l13.691406 7.902344c.445313.257812.707031.710937.742187 1.1875 0-.039063.003907-.082032.003907-.121094.007812-.523438-.261719-1.035156-.746094-1.3125l-13.691406-7.90625c-.164063-.105469-.347657-.179688-.546875-.210938-.011719-.003906-.023438-.003906-.035156-.007812-.070313-.011719-.144532-.015625-.21875-.015625zm-1.492188 17.386719v.050781zm0 0" fill="#fff" fill-opacity=".392157"/><path d="m3.96875 3.636719v.058593zm16.714844 7.761719c-.058594.441406-.316406.851562-.730469 1.089843l-13.75 7.9375c-.714844.414063-1.621094.171875-2.035156-.542969-.128907-.230468-.195313-.476562-.199219-.71875v.371094.011719c-.007812.265625.058594.535156.199219.78125.414062.714844 1.320312.957031 2.035156.546875l13.75-7.9375c.484375-.28125.753906-.792969.746094-1.3125 0-.078125-.003907-.152344-.015625-.226562zm-16.714844 7.691406v.023437c0-.007812 0-.011719 0-.015625s0-.003906 0-.007812zm0 0" fill-opacity=".235294"/><path d="m5.460938 2.101562c-.066407 0-.136719.003907-.203126.011719-.011718.003907-.019531.003907-.03125.003907-.007812.003906-.011718.003906-.015624.003906-.003907 0-.011719 0-.015626.003906-.675781.113281-1.203124.660156-1.285156 1.34375 0 .011719-.003906.023438-.003906.03125-.007812.066406-.007812.132812-.007812.199219v-.003907 15.839844.007813c-.007813.28125.0625.5625.210937.820312.429687.75 1.382813 1.003907 2.128906.574219l13.75-7.941406c.507813-.292969.789063-.824219.777344-1.371094.011719-.546875-.269531-1.082031-.777344-1.375l-13.6875-7.902344c-.171875-.109375-.367187-.1875-.574219-.222656-.011718-.003906-.023437-.003906-.035156-.007812v.003906c-.074218-.011719-.152344-.019532-.230468-.019532zm0 .140626c.070312 0 .140624.003906.210937.015624.007813 0 .019531.003907.03125.003907.1875.035156.363281.105469.519531.203125h.003906l13.691407 7.90625c.460937.269531.71875.753906.710937 1.25v.003906c.007813.496094-.25.984375-.710937 1.25l-13.75 7.9375c-.683594.394531-1.542969.164062-1.9375-.519531-.136719-.234375-.199219-.492188-.191407-.746094 0-.003906 0-.007813 0-.011719v-15.839844c0-.058593 0-.121093.007813-.179687 0-.007813 0-.019531.003906-.027344.074219-.625.550781-1.121093 1.167969-1.226562h.015625c.003906-.003907.007813-.003907.011719-.003907.011718 0 .019531-.003906.03125-.003906.058594-.007812.121094-.011718.183594-.011718zm0 0" fill="#212121"/><path d="m7.691406 6.632812c-.003906 0-.011718 0-.015625 0-.167969.003907-.328125.09375-.417969.25-.058593.097657-.078124.210938-.0625.316407v3.816406c-.023437.109375-.007812.222656.050782.324219l.019531.03125c.113281.195312.351563.277344.566406.210937.054688-.015625.105469-.039062.152344-.074219l3.144531-1.816406 3.304688 1.90625-6.996094 4.042969c-.238281.136719-.320312.4375-.179688.675781.136719.238282.4375.320313.675782.183594l7.734375-4.46875c.160156-.089844.25-.257812.25-.433594 0-.171875-.089844-.339844-.25-.433594l-7.683594-4.4375c-.046875-.035156-.101563-.058593-.164063-.074218-.039062-.011719-.085937-.019532-.128906-.019532zm0 0" fill="url(#g)"/><path d="m7.691406 6.632812c-.003906 0-.011718 0-.015625 0-.167969.003907-.328125.09375-.417969.25-.058593.097657-.078124.210938-.0625.316407v.144531c.007813-.0625.027344-.125.0625-.183594.089844-.152344.25-.242187.417969-.246094h.015625c.042969 0 .089844.007813.128906.019532.0625.015625.117188.039062.164063.074218l7.683594 4.4375c.117187.066407.195312.175782.230469.292969.011718-.042969.019531-.09375.019531-.140625 0-.171875-.089844-.339844-.25-.433594l-7.683594-4.4375c-.046875-.035156-.101563-.058593-.164063-.074218-.039062-.011719-.085937-.019532-.128906-.019532zm-.496094 4.382813c-.011718.058594-.011718.121094 0 .183594zm6.996094.722656-6.753906 3.902344c-.203125.117187-.292969.351563-.226562.566406.035156-.117187.113281-.222656.226562-.285156l6.996094-4.042969zm0 0" fill="#fff" fill-opacity=".392157"/><path d="m7.195312 7.480469c-.007812.046875-.007812.089843 0 .136719zm3.933594 2.210937-3.144531 1.816406c-.046875.035157-.097656.058594-.152344.074219-.214843.066407-.453125-.015625-.566406-.210937l-.019531-.03125c-.023438-.042969-.042969-.09375-.050782-.140625v.234375c-.023437.109375-.007812.222656.050782.328125l.019531.027343c.113281.199219.351563.28125.566406.210938.054688-.015625.105469-.039062.152344-.074219l3.144531-1.816406 2.941406 1.699219.363282-.210938zm4.742188 2.117188c-.039063.089844-.109375.171875-.203125.222656l-7.734375 4.46875c-.238282.136719-.539063.054688-.675782-.183594-.007812-.011718-.015624-.027344-.023437-.039062-.066406.140625-.0625.3125.023437.457031.136719.238281.4375.320313.675782.183594l7.734375-4.464844c.160156-.09375.25-.261719.25-.433594 0-.074219-.015625-.144531-.046875-.210937zm0 0" fill-opacity=".235294"/><path d="m164.067666-73.513511c-.083326 0-.249976 0-.333302 0-3.582991.083325-6.999331 1.999809-8.915815 5.332824-1.249881 2.083134-1.666508 4.49957-1.333206 6.749355v81.408893c-.499952 2.33311-.166651 4.749546 1.08323 6.916006l.416627.666603c2.416436 4.166269 7.499284 5.916102 12.082179 4.49957 1.166555-.333301 2.249785-.833253 3.24969-1.583182l67.076928-38.7463 70.493268 40.662784-149.235749 86.241764c-5.082848 2.916388-6.832681 9.332442-3.832967 14.41529 2.916388 5.082848 9.332442 6.832681 14.41529 3.916293l164.984245-95.32423c3.41634-1.916484 5.332824-5.499475 5.332824-9.249117 0-3.666317-1.916484-7.249308-5.332824-9.249117l-163.901015-94.657627c-.999905-.749929-2.16646-1.249881-3.499666-1.583182-.833254-.249977-1.833158-.416627-2.749737-.416627zm0 0" fill="none" stroke="#212121" stroke-linecap="round" stroke-linejoin="round" stroke-width="3" transform="matrix(.0468795 0 0 .0468795 0 10.079087)"/></svg>

<?xml version="1.0" encoding="UTF-8"?>
<svg xmlns="http://www.w3.org/2000/svg" xmlns:xlink="http://www.w3.org/1999/xlink" width="24pt" height="24pt" viewBox="0 0 24 24" version="1.1">
<defs>
<radialGradient id="radial0" gradientUnits="userSpaceOnUse" cx="450.90894" cy="189.57936" fx="450.90894" fy="189.57936" r="21.166656" gradientTransform="matrix(0.000000130628,-0.0585994,-0.105479,-0.0000000761539,24.957966,47.696501)">
<stop offset="0" style="stop-color:rgb(0%,0%,0%);stop-opacity:0.313725;"/>
<stop offset="0.222222" style="stop-color:rgb(0%,0%,0%);stop-opacity:0.27451;"/>
<stop offset="1" style="stop-color:rgb(0%,0%,0%);stop-opacity:0;"/>
</radialGradient>
<radialGradient id="radial1" gradientUnits="userSpaceOnUse" cx="450.90894" cy="189.57936" fx="450.90894" fy="189.57936" r="21.166656" gradientTransform="matrix(-0.000000130628,0.0585994,0.105479,0.0000000761539,-14.538999,-5.645609)">
<stop offset="0" style="stop-color:rgb(0%,0%,0%);stop-opacity:0.313725;"/>
<stop offset="0.222222" style="stop-color:rgb(0%,0%,0%);stop-opacity:0.27451;"/>
<stop offset="1" style="stop-color:rgb(0%,0%,0%);stop-opacity:0;"/>
</radialGradient>
<radialGradient id="radial2" gradientUnits="userSpaceOnUse" cx="450.90894" cy="189.57936" fx="450.90894" fy="189.57936" r="21.166656" gradientTransform="matrix(-0.000000130628,-0.0585994,0.105479,-0.0000000761539,-14.538999,47.696501)">
<stop offset="0" style="stop-color:rgb(0%,0%,0%);stop-opacity:0.313725;"/>
<stop offset="0.222222" style="stop-color:rgb(0%,0%,0%);stop-opacity:0.27451;"/>
<stop offset="1" style="stop-color:rgb(0%,0%,0%);stop-opacity:0;"/>
</radialGradient>
<radialGradient id="radial3" gradientUnits="userSpaceOnUse" cx="450.90894" cy="189.57936" fx="450.90894" fy="189.57936" r="21.166656" gradientTransform="matrix(0.000000130628,0.0585994,-0.105479,0.0000000761539,24.957964,-5.645609)">
<stop offset="0" style="stop-color:rgb(0%,0%,0%);stop-opacity:0.313725;"/>
<stop offset="0.222222" style="stop-color:rgb(0%,0%,0%);stop-opacity:0.27451;"/>
<stop offset="1" style="stop-color:rgb(0%,0%,0%);stop-opacity:0;"/>
</radialGradient>
<linearGradient id="linear0" gradientUnits="userSpaceOnUse" x1="254" y1="233.5" x2="254" y2="-168.66667" gradientTransform="matrix(0.0468795,0,0,0.0468795,0,10.079087)">
<stop offset="0" style="stop-color:rgb(25.882353%,25.882353%,25.882353%);stop-opacity:1;"/>
<stop offset="1" style="stop-color:rgb(38.039216%,38.039216%,38.039216%);stop-opacity:1;"/>
</linearGradient>
<linearGradient id="linear1" gradientUnits="userSpaceOnUse" x1="740" y1="535.1181" x2="740" y2="1335.1182" gradientTransform="matrix(0.0124035,0,0,0.0124035,0.744212,0.00000000000000141)">
<stop offset="0" style="stop-color:rgb(61.176471%,80%,39.607843%);stop-opacity:1;"/>
<stop offset="1" style="stop-color:rgb(68.235294%,83.529412%,50.588235%);stop-opacity:1;"/>
</linearGradient>
</defs>
<g id="surface1">
<path style=" stroke:none;fill-rule:nonzero;fill:url(#radial0);" d="M 5.210938 21.027344 L 7.195312 21.027344 L 7.195312 20.03125 L 5.210938 20.03125 Z M 5.210938 21.027344 "/>
<path style=" stroke:none;fill-rule:nonzero;fill:url(#radial1);" d="M 5.210938 21.027344 L 3.226562 21.027344 L 3.226562 22.019531 L 5.210938 22.019531 Z M 5.210938 21.027344 "/>
<path style=" stroke:none;fill-rule:nonzero;fill:url(#radial2);" d="M 5.210938 21.027344 L 3.226562 21.027344 L 3.226562 20.03125 L 5.210938 20.03125 Z M 5.210938 21.027344 "/>
<path style=" stroke:none;fill-rule:nonzero;fill:url(#radial3);" d="M 5.210938 21.027344 L 7.195312 21.027344 L 7.195312 22.019531 L 5.210938 22.019531 Z M 5.210938 21.027344 "/>
<path style=" stroke:none;fill-rule:nonzero;fill:url(#linear0);" d="M 5.460938 2.171875 C 5.398438 2.171875 5.332031 2.175781 5.265625 2.183594 C 5.257812 2.183594 5.246094 2.1875 5.234375 2.1875 C 5.230469 2.1875 5.226562 2.191406 5.222656 2.191406 C 5.214844 2.191406 5.210938 2.191406 5.207031 2.191406 C 4.5625 2.300781 4.058594 2.824219 3.980469 3.476562 C 3.980469 3.488281 3.976562 3.5 3.976562 3.507812 C 3.96875 3.570312 3.96875 3.632812 3.96875 3.695312 L 3.96875 19.535156 C 3.96875 19.539062 3.96875 19.542969 3.96875 19.546875 C 3.960938 19.8125 4.027344 20.082031 4.167969 20.328125 C 4.582031 21.042969 5.488281 21.285156 6.203125 20.875 L 19.953125 12.9375 C 20.4375 12.65625 20.707031 12.144531 20.699219 11.625 C 20.707031 11.101562 20.4375 10.589844 19.953125 10.3125 L 6.261719 2.40625 C 6.097656 2.300781 5.914062 2.226562 5.714844 2.195312 C 5.703125 2.191406 5.691406 2.191406 5.679688 2.1875 C 5.609375 2.175781 5.535156 2.171875 5.460938 2.171875 Z M 5.460938 2.171875 "/>
<path style=" stroke:none;fill-rule:nonzero;fill:rgb(100%,100%,100%);fill-opacity:0.392157;" d="M 5.460938 2.171875 C 5.398438 2.171875 5.332031 2.175781 5.265625 2.183594 C 5.257812 2.183594 5.246094 2.1875 5.234375 2.1875 C 5.230469 2.1875 5.226562 2.191406 5.222656 2.191406 C 5.214844 2.191406 5.210938 2.191406 5.207031 2.191406 C 4.5625 2.300781 4.058594 2.824219 3.980469 3.476562 C 3.980469 3.488281 3.976562 3.5 3.976562 3.507812 C 3.96875 3.570312 3.96875 3.632812 3.96875 3.695312 L 3.96875 3.882812 C 3.96875 3.839844 3.972656 3.800781 3.976562 3.757812 C 3.976562 3.746094 3.980469 3.738281 3.980469 3.726562 C 4.058594 3.070312 4.5625 2.550781 5.207031 2.441406 C 5.210938 2.441406 5.214844 2.441406 5.222656 2.4375 C 5.226562 2.4375 5.230469 2.4375 5.234375 2.4375 C 5.246094 2.433594 5.257812 2.433594 5.265625 2.433594 C 5.332031 2.425781 5.398438 2.421875 5.460938 2.421875 C 5.535156 2.421875 5.609375 2.425781 5.679688 2.4375 C 5.691406 2.4375 5.703125 2.441406 5.714844 2.441406 C 5.914062 2.476562 6.097656 2.550781 6.261719 2.65625 L 19.953125 10.558594 C 20.398438 10.816406 20.660156 11.269531 20.695312 11.746094 C 20.695312 11.707031 20.699219 11.664062 20.699219 11.625 C 20.707031 11.101562 20.4375 10.589844 19.953125 10.3125 L 6.261719 2.40625 C 6.097656 2.300781 5.914062 2.226562 5.714844 2.195312 C 5.703125 2.191406 5.691406 2.191406 5.679688 2.1875 C 5.609375 2.175781 5.535156 2.171875 5.460938 2.171875 Z M 3.96875 19.558594 C 3.96875 19.578125 3.96875 19.59375 3.96875 19.609375 Z M 3.96875 19.558594 "/>
<path style=" stroke:none;fill-rule:nonzero;fill:rgb(0%,0%,0%);fill-opacity:0.235294;" d="M 3.96875 3.636719 C 3.96875 3.65625 3.96875 3.675781 3.96875 3.695312 Z M 20.683594 11.398438 C 20.625 11.839844 20.367188 12.25 19.953125 12.488281 L 6.203125 20.425781 C 5.488281 20.839844 4.582031 20.597656 4.167969 19.882812 C 4.039062 19.652344 3.972656 19.40625 3.96875 19.164062 L 3.96875 19.535156 C 3.96875 19.539062 3.96875 19.542969 3.96875 19.546875 C 3.960938 19.8125 4.027344 20.082031 4.167969 20.328125 C 4.582031 21.042969 5.488281 21.285156 6.203125 20.875 L 19.953125 12.9375 C 20.4375 12.65625 20.707031 12.144531 20.699219 11.625 C 20.699219 11.546875 20.695312 11.472656 20.683594 11.398438 Z M 3.96875 19.089844 L 3.96875 19.113281 C 3.96875 19.105469 3.96875 19.101562 3.96875 19.097656 C 3.96875 19.09375 3.96875 19.09375 3.96875 19.089844 Z M 3.96875 19.089844 "/>
<path style=" stroke:none;fill-rule:nonzero;fill:rgb(12.941176%,12.941176%,12.941176%);fill-opacity:1;" d="M 5.460938 2.101562 C 5.394531 2.101562 5.324219 2.105469 5.257812 2.113281 C 5.246094 2.117188 5.238281 2.117188 5.226562 2.117188 C 5.21875 2.121094 5.214844 2.121094 5.210938 2.121094 C 5.207031 2.121094 5.199219 2.121094 5.195312 2.125 C 4.519531 2.238281 3.992188 2.785156 3.910156 3.46875 C 3.910156 3.480469 3.90625 3.492188 3.90625 3.5 C 3.898438 3.566406 3.898438 3.632812 3.898438 3.699219 L 3.898438 3.695312 L 3.898438 19.535156 C 3.898438 19.539062 3.898438 19.542969 3.898438 19.542969 C 3.890625 19.824219 3.960938 20.105469 4.109375 20.363281 C 4.539062 21.113281 5.492188 21.367188 6.238281 20.9375 L 19.988281 12.996094 C 20.496094 12.703125 20.777344 12.171875 20.765625 11.625 C 20.777344 11.078125 20.496094 10.542969 19.988281 10.25 L 6.300781 2.347656 C 6.128906 2.238281 5.933594 2.160156 5.726562 2.125 C 5.714844 2.121094 5.703125 2.121094 5.691406 2.117188 L 5.691406 2.121094 C 5.617188 2.109375 5.539062 2.101562 5.460938 2.101562 Z M 5.460938 2.242188 C 5.53125 2.242188 5.601562 2.246094 5.671875 2.257812 C 5.679688 2.257812 5.691406 2.261719 5.703125 2.261719 C 5.890625 2.296875 6.066406 2.367188 6.222656 2.464844 L 6.226562 2.464844 L 19.917969 10.371094 C 20.378906 10.640625 20.636719 11.125 20.628906 11.621094 L 20.628906 11.625 C 20.636719 12.121094 20.378906 12.609375 19.917969 12.875 L 6.167969 20.8125 C 5.484375 21.207031 4.625 20.976562 4.230469 20.292969 C 4.09375 20.058594 4.03125 19.800781 4.039062 19.546875 C 4.039062 19.542969 4.039062 19.539062 4.039062 19.535156 L 4.039062 3.695312 C 4.039062 3.636719 4.039062 3.574219 4.046875 3.515625 C 4.046875 3.507812 4.046875 3.496094 4.050781 3.488281 C 4.125 2.863281 4.601562 2.367188 5.21875 2.261719 C 5.222656 2.261719 5.226562 2.261719 5.234375 2.261719 C 5.238281 2.257812 5.242188 2.257812 5.246094 2.257812 C 5.257812 2.257812 5.265625 2.253906 5.277344 2.253906 C 5.335938 2.246094 5.398438 2.242188 5.460938 2.242188 Z M 5.460938 2.242188 "/>
<path style=" stroke:none;fill-rule:nonzero;fill:url(#linear1);" d="M 7.691406 6.632812 C 7.6875 6.632812 7.679688 6.632812 7.675781 6.632812 C 7.507812 6.636719 7.347656 6.726562 7.257812 6.882812 C 7.199219 6.980469 7.179688 7.09375 7.195312 7.199219 L 7.195312 11.015625 C 7.171875 11.125 7.1875 11.238281 7.246094 11.339844 L 7.265625 11.371094 C 7.378906 11.566406 7.617188 11.648438 7.832031 11.582031 C 7.886719 11.566406 7.9375 11.542969 7.984375 11.507812 L 11.128906 9.691406 L 14.433594 11.597656 L 7.4375 15.640625 C 7.199219 15.777344 7.117188 16.078125 7.257812 16.316406 C 7.394531 16.554688 7.695312 16.636719 7.933594 16.5 L 15.667969 12.03125 C 15.828125 11.941406 15.917969 11.773438 15.917969 11.597656 C 15.917969 11.425781 15.828125 11.257812 15.667969 11.164062 L 7.984375 6.726562 C 7.9375 6.691406 7.882812 6.667969 7.820312 6.652344 C 7.78125 6.640625 7.734375 6.632812 7.691406 6.632812 Z M 7.691406 6.632812 "/>
<path style=" stroke:none;fill-rule:nonzero;fill:rgb(100%,100%,100%);fill-opacity:0.392157;" d="M 7.691406 6.632812 C 7.6875 6.632812 7.679688 6.632812 7.675781 6.632812 C 7.507812 6.636719 7.347656 6.726562 7.257812 6.882812 C 7.199219 6.980469 7.179688 7.09375 7.195312 7.199219 L 7.195312 7.34375 C 7.203125 7.28125 7.222656 7.21875 7.257812 7.160156 C 7.347656 7.007812 7.507812 6.917969 7.675781 6.914062 C 7.679688 6.914062 7.6875 6.914062 7.691406 6.914062 C 7.734375 6.914062 7.78125 6.921875 7.820312 6.933594 C 7.882812 6.949219 7.9375 6.972656 7.984375 7.007812 L 15.667969 11.445312 C 15.785156 11.511719 15.863281 11.621094 15.898438 11.738281 C 15.910156 11.695312 15.917969 11.644531 15.917969 11.597656 C 15.917969 11.425781 15.828125 11.257812 15.667969 11.164062 L 7.984375 6.726562 C 7.9375 6.691406 7.882812 6.667969 7.820312 6.652344 C 7.78125 6.640625 7.734375 6.632812 7.691406 6.632812 Z M 7.195312 11.015625 C 7.183594 11.074219 7.183594 11.136719 7.195312 11.199219 Z M 14.191406 11.738281 L 7.4375 15.640625 C 7.234375 15.757812 7.144531 15.992188 7.210938 16.207031 C 7.246094 16.089844 7.324219 15.984375 7.4375 15.921875 L 14.433594 11.878906 Z M 14.191406 11.738281 "/>
<path style=" stroke:none;fill-rule:nonzero;fill:rgb(0%,0%,0%);fill-opacity:0.235294;" d="M 7.195312 7.480469 C 7.1875 7.527344 7.1875 7.570312 7.195312 7.617188 Z M 11.128906 9.691406 L 7.984375 11.507812 C 7.9375 11.542969 7.886719 11.566406 7.832031 11.582031 C 7.617188 11.648438 7.378906 11.566406 7.265625 11.371094 L 7.246094 11.339844 C 7.222656 11.296875 7.203125 11.246094 7.195312 11.199219 L 7.195312 11.433594 C 7.171875 11.542969 7.1875 11.65625 7.246094 11.761719 L 7.265625 11.789062 C 7.378906 11.988281 7.617188 12.070312 7.832031 12 C 7.886719 11.984375 7.9375 11.960938 7.984375 11.925781 L 11.128906 10.109375 L 14.070312 11.808594 L 14.433594 11.597656 Z M 15.871094 11.808594 C 15.832031 11.898438 15.761719 11.980469 15.667969 12.03125 L 7.933594 16.5 C 7.695312 16.636719 7.394531 16.554688 7.257812 16.316406 C 7.25 16.304688 7.242188 16.289062 7.234375 16.277344 C 7.167969 16.417969 7.171875 16.589844 7.257812 16.734375 C 7.394531 16.972656 7.695312 17.054688 7.933594 16.917969 L 15.667969 12.453125 C 15.828125 12.359375 15.917969 12.191406 15.917969 12.019531 C 15.917969 11.945312 15.902344 11.875 15.871094 11.808594 Z M 15.871094 11.808594 "/>
<path style="fill:none;stroke-width:3;stroke-linecap:round;stroke-linejoin:round;stroke:rgb(12.941176%,12.941176%,12.941176%);stroke-opacity:1;stroke-miterlimit:4;" d="M 164.067666 -73.513511 C 163.98434 -73.513511 163.81769 -73.513511 163.734364 -73.513511 C 160.151373 -73.430186 156.735033 -71.513702 154.818549 -68.180687 C 153.568668 -66.097553 153.152041 -63.681117 153.485343 -61.431332 L 153.485343 19.977561 C 152.985391 22.310671 153.318692 24.727107 154.568573 26.893567 L 154.9852 27.56017 C 157.401636 31.726439 162.484484 33.476272 167.067379 32.05974 C 168.233934 31.726439 169.317164 31.226487 170.317069 30.476558 L 237.393997 -8.269742 L 307.887265 32.393042 L 158.651516 118.634806 C 153.568668 121.551194 151.818835 127.967248 154.818549 133.050096 C 157.734937 138.132944 164.150991 139.882777 169.233839 136.966389 L 334.218084 41.642159 C 337.634424 39.725675 339.550908 36.142684 339.550908 32.393042 C 339.550908 28.726725 337.634424 25.143734 334.218084 23.143925 L 170.317069 -71.513702 C 169.317164 -72.263631 168.150609 -72.763583 166.817403 -73.096884 C 165.984149 -73.346861 164.984245 -73.513511 164.067666 -73.513511 Z M 164.067666 -73.513511 " transform="matrix(0.0468795,0,0,0.0468795,0,10.079087)"/>
</g>
</svg>
